X:1
T:Mako Reactor
T:Mako Reactor
T:Final Fantasy VII
T:Nobuo Uematsu
C:Nobuo Uematsu
%%score { 1 | 2 | 3 }
L:1/8
Q:1/4=160
M:4/4
K:Eb
V:1 treble nm="Piano" snm="Pno."
V:2 treble 
V:3 bass 
V:1
|: z8 | z8 | z8 | z8 :| z8 | z8 | z8 | z8 | z8 | z8 | z8 | z8 | z8 | z8 | z8 | z8 | z8 | z8 | z8 | %19
 z8 |: z8 | z8 | z8 | z8 :: z4 !>![df_b]4 | !>![cf=a]4 z4 | z4 !>![=Adf]4 | !>![_Bdg]4 z4 | %28
 z4 !>![df_b]4 |1 !>![cf=a]4 !>![=Adf]4 | !>![_Bdg]4 z4 | z8 :|2 !>![cf=a]4 !>![fac']4 | %33
 !>![df_b]4 z4 | z8 |: z4 !>![f_a_d']4 | !>![f_ac']4 z4 | z4 !>![cf_a]4 | !>![_df_b]4 z4 | %39
 z4 !>![f_a_d']4 |1 !>![_e_ac']4 !>![cfa]4 | !>![_df_b]4 z4 | z8 :|2 !>![_e_ac']4 !>![gc'_e']4 | %44
 !>![f_a_d']4 z4 | z8 || z8 | z8 | z8 | z8 | z8 | z8 | z8 | z8 | z8 | z8 | z8 | z8 | z8 | z8 | z8 | %61
 z8 |] %62
V:2
|: z8 | z8 | z8 | z8 :| z4 G2 A2 | [GB]2 [Ag]2 B2!>(! g2 | B2 g2!>)! z4 | z8 | z4 G2 A2 | %9
 [GB]2 [Ag]2 B2 [fg]2 | b2 f2!>(! [_db]2 z2 | _d2 z2 d2!>)! z2 | z4 G2 A2 | %13
 [GB]2 [Ag]2 B2!>(! [eg]2 | z2 e2 z2 e2!>)! | z8 | z4 F2 G2 | [FA]2 [G_d]2 A2 [=Bd]2 | %18
!>(! c2 =B2 c2 B2 | c2!>)! z2 z4 |: [EGc]2 z2 [EGc]2 z2 | [_DFB]2 z2 [DFB]2 z2 | %22
 [EGc]2 z2 [EGc]2 z2 | [_DFB]2 z2 [DFB]2 z2 :: [DGB]2 b2 [DGB]2 g2 | [CF=A]2 d2 [CFA]2 B2 | %26
 [DGB]2 b2 [DGB]2 g2 | [CF=A]2 d2 [CFA]2 B2 | [DGB]2 b2 [DGB]2 g2 |1 [CF=A]2 d2 [CFA]2 B2 | %30
 [DGB]2 b2 [DGB]2 g2 | [CF=A]2 d2 [CFA]2 B2 :|2 [CF=A]2 d2 [CFA]2 B2 | [DGB]2 b2 [DGB]2 g2 | %34
 [CF=A]2 d2 [CFA]2 B2 |: [FB_d]2 _d'2 [FBd]2 b2 | [EAc]2 f2 [EAc]2 _d2 | [FB_d]2 _d'2 [FBd]2 b2 | %38
 [EAc]2 f2 [EAc]2 _d2 | [FB_d]2 _d'2 [FBd]2 b2 |1 [EAc]2 f2 [EAc]2 _d2 | [FB_d]2 _d'2 [FBd]2 b2 | %42
 [EAc]2 f2 [EAc]2 _d2 :|2 [EAc]2 f2 [EAc]2 _d2 | [FB_d]2 _d'2 [FBd]2 b2 | [EAc]2 f2 [EAc]2 _d2 || %46
 z4 G2 A2 | [GB]2 [Ag]2 B2!>(! g2 | B2 g2!>)! z4 | z8 | z4 G2 A2 | [GB]2 [Ag]2 B2 [fg]2 | %52
 b2 f2!>(! [_db]2 z2 | _d2 z2 d2!>)! z2 | z4 G2 A2 | [GB]2 [Ag]2 B2!>(! [eg]2 | z2 e2 z2 e2!>)! | %57
 z8 | z4 F2 G2 | [FA]2 [G_d]2 A2 [=Bd]2 |!>(! c2 =B2 c2 B2 | c2!>)! z2 z4 |] %62
V:3
|: [C,,,C,,]6 [C,,,C,,][C,,,C,,] | [C,,,C,,]4 [C,,,C,,]4 | [C,,,C,,]8- | [C,,,C,,]8 :| %4
 [C,,,C,,]6 [C,,,C,,][C,,,C,,] | [C,,,C,,]4 [C,,,C,,]4 | [C,,,C,,]8- | [C,,,C,,]8 | %8
 [C,,,C,,]6 [C,,,C,,][C,,,C,,] | [C,,,C,,]4 [C,,,C,,]4 | [C,,,C,,]8- | [C,,,C,,]8 | %12
 [C,,,C,,]6 [C,,,C,,][C,,,C,,] | [C,,,C,,]4 [C,,,C,,]4 | [C,,,C,,]8- | [C,,,C,,]8 | %16
 [C,,,C,,]6 [C,,,C,,][C,,,C,,] | [C,,,C,,]4 [C,,,C,,]4 | [C,,,C,,]8- | [C,,,C,,]8 |: %20
 [C,,,C,,]6 [C,,,C,,][C,,,C,,] | [C,,,C,,]4 [C,,,C,,]4 | [C,,,C,,]8- | [C,,,C,,]8 :: %24
 [G,,,G,,]6 [G,,,G,,][G,,,G,,] | [G,,,G,,]4 [G,,,G,,]4 | [G,,,G,,]8- | [G,,,G,,]8 | %28
 [G,,,G,,]6 [G,,,G,,][G,,,G,,] |1 [G,,,G,,]4 [G,,,G,,]4 | [G,,,G,,]8 | %31
 !>![G,,,G,,]4 !>![F,,,F,,]4 :|2 [G,,,G,,]4 [G,,,G,,]4 | [G,,,G,,]8 | %34
 !>![G,,,G,,]4 !>![F,,,F,,]4 |: [B,,,B,,]6 [B,,,B,,][B,,,B,,] | [B,,,B,,]4 [B,,,B,,]4 | %37
 [B,,,B,,]8- | [B,,,B,,]8 | [B,,,B,,]6 [B,,,B,,][B,,,B,,] |1 [B,,,B,,]4 [B,,,B,,]4 | [B,,,B,,]8 | %42
 !>![B,,,B,,]4 !>![A,,,A,,]4 :|2 [B,,,B,,]4 [B,,,B,,]4 | [B,,,B,,]8 | %45
 !>![B,,,B,,]4 !>![A,,,A,,]4 || [C,,,C,,]6 [C,,,C,,][C,,,C,,] | [C,,,C,,]4 [C,,,C,,]4 | %48
 [C,,,C,,]8- | [C,,,C,,]8 | [C,,,C,,]6 [C,,,C,,][C,,,C,,] | [C,,,C,,]4 [C,,,C,,]4 | [C,,,C,,]8- | %53
 [C,,,C,,]8 | [C,,,C,,]6 [C,,,C,,][C,,,C,,] | [C,,,C,,]4 [C,,,C,,]4 | [C,,,C,,]8- | [C,,,C,,]8 | %58
 [C,,,C,,]6 [C,,,C,,][C,,,C,,] | [C,,,C,,]4 [C,,,C,,]4 | [C,,,C,,]8- | [C,,,C,,]8 |] %62

